X:3059
T:Pohlsk dans
T:(Totakt-pols, nr. JMB-76)
S:efter Jens Millersen Bjerg
R:Totakt-pols
O:Husby, Ringköbing amt, Danmark
N:Från nothäftet "Totakt-pols" av Åke Persson och Ethel Wieslander. [[Platser/Danmark|Fler låtar från Danmark...]]
Z:Åke Persson 2012-12-07
M:2/4
L:1/8
Q:1/4=100
K:D
|: f2 f2 | {g}fe{f}ed | dfdf | {g}fe{f}ed | {fga}a2 .f.e | (e2 d2) :|
|: a2 a2 | {b}ag{a}gf | (f/g/).a/.g/ (f/g/).a/.g/ | {b}ag{a}gf | (ae) e2 | (ae) e2 | d(f/g/) ag | (fe) d2 :|
(:musicend:)
(:music:)
